images/andrios.svg

<?xml version="1.0" encoding="UTF-8" standalone="no"?>
<svg width="153px" height="38px" viewBox="0 0 153 38" version="1.1" xmlns="http://www.w3.org/2000/svg" xmlns:xlink="http://www.w3.org/1999/xlink" xmlns:sketch="http://www.bohemiancoding.com/sketch/ns">
    <!-- Generator: Sketch 3.1.1 (8761) - http://www.bohemiancoding.com/sketch -->
    <title>andrios</title>
    <desc>Created with Sketch.</desc>
    <defs></defs>
    <g id="Page-1" stroke="none" stroke-width="1" fill="none" fill-rule="evenodd" sketch:type="MSPage">
        <path d="M17.7578125,37 C17.5703116,36.1406207 17.4375004,35.3984406 17.359375,34.7734375 C17.2812496,34.1484344 17.2421875,33.5156282 17.2421875,32.875 C16.3046828,34.2031316 15.0546953,35.3046831 13.4921875,36.1796875 C11.9296797,37.0546919 10.1718848,37.4921875 8.21875,37.4921875 C5.74998766,37.4921875 3.83203809,36.8359441 2.46484375,35.5234375 C1.09764941,34.2109309 0.4140625,32.453136 0.4140625,30.25 C0.4140625,27.9062383 1.42577113,26.031257 3.44921875,24.625 C5.47266637,23.218743 8.20310781,22.515625 11.640625,22.515625 L17.2421875,22.515625 L17.2421875,19.375 C17.2421875,17.5624909 16.6601621,16.1406302 15.4960938,15.109375 C14.3320254,14.0781198 12.7031355,13.5625 10.609375,13.5625 C8.65624023,13.5625 7.0351627,14.0546826 5.74609375,15.0390625 C4.4570248,16.0234424 3.8125,17.2265554 3.8125,18.6484375 L1.234375,18.625 L1.1875,18.484375 C1.09374953,16.5937405 1.95702215,14.9023512 3.77734375,13.4101562 C5.59766535,11.9179613 7.91404844,11.171875 10.7265625,11.171875 C13.5234515,11.171875 15.773429,11.8828054 17.4765625,13.3046875 C19.179696,14.7265696 20.03125,16.7656117 20.03125,19.421875 L20.03125,31.890625 C20.03125,32.7812545 20.0820307,33.6484333 20.1835938,34.4921875 C20.2851568,35.3359417 20.4531238,36.1718709 20.6875,37 L17.7578125,37 Z M8.546875,35.0078125 C10.5625101,35.0078125 12.3437423,34.535161 13.890625,33.5898438 C15.4375077,32.6445265 16.5546841,31.4375073 17.2421875,29.96875 L17.2421875,24.671875 L11.59375,24.671875 C9.04686227,24.671875 7.01172637,25.2148383 5.48828125,26.3007812 C3.96483613,27.3867242 3.203125,28.734367 3.203125,30.34375 C3.203125,31.7187569 3.67577652,32.8398394 4.62109375,33.7070312 C5.56641098,34.5742231 6.87499164,35.0078125 8.546875,35.0078125 L8.546875,35.0078125 Z M29.9921875,11.640625 L30.25,16.0703125 C31.0625041,14.5078047 32.1601493,13.3007855 33.5429688,12.4492188 C34.9257882,11.597652 36.5624905,11.171875 38.453125,11.171875 C41.2031387,11.171875 43.2968678,12.0117104 44.734375,13.6914062 C46.1718822,15.3711021 46.890625,17.9921697 46.890625,21.5546875 L46.890625,37 L44.078125,37 L44.078125,21.578125 C44.078125,18.6718605 43.5351617,16.6171935 42.4492188,15.4140625 C41.3632758,14.2109315 39.8203225,13.609375 37.8203125,13.609375 C35.8515527,13.609375 34.2461,14.1289011 33.0039062,15.1679688 C31.7617125,16.2070364 30.8671902,17.5859289 30.3203125,19.3046875 L30.3203125,37 L27.5078125,37 L27.5078125,11.640625 L29.9921875,11.640625 Z M53.125,24.53125 C53.125,20.4843548 53.9804602,17.2461059 55.6914062,14.8164062 C57.4023523,12.3867066 59.7890472,11.171875 62.8515625,11.171875 C64.6171963,11.171875 66.148431,11.5468712 67.4453125,12.296875 C68.742194,13.0468788 69.8203082,14.1093681 70.6796875,15.484375 L70.6796875,0.4375 L73.46875,0.4375 L73.46875,37 L70.984375,37 L70.75,33.3203125 C69.9062458,34.6640692 68.8203191,35.6953089 67.4921875,36.4140625 C66.1640559,37.1328161 64.6015715,37.4921875 62.8046875,37.4921875 C59.7734223,37.4921875 57.4023523,36.3632925 55.6914062,34.1054688 C53.9804602,31.847645 53.125,28.8203315 53.125,25.0234375 L53.125,24.53125 Z M55.9375,25.0234375 C55.9375,28.0859528 56.5507751,30.5234284 57.7773438,32.3359375 C59.0039124,34.1484466 60.8515502,35.0546875 63.3203125,35.0546875 C65.1328216,35.0546875 66.6445252,34.6484416 67.8554688,33.8359375 C69.0664123,33.0234334 70.0078091,31.8984447 70.6796875,30.4609375 L70.6796875,18.5546875 C70.0390593,17.0859302 69.1328184,15.8945358 67.9609375,14.9804688 C66.7890566,14.0664017 65.257822,13.609375 63.3671875,13.609375 C60.8984252,13.609375 59.042975,14.6210836 57.8007813,16.6445312 C56.5585875,18.6679789 55.9375,21.2968588 55.9375,24.53125 L55.9375,25.0234375 Z M92.6171875,14.0546875 L90.53125,13.9140625 C88.7656162,13.9140625 87.3164119,14.4101513 86.1835938,15.4023438 C85.0507756,16.3945362 84.2421899,17.7578038 83.7578125,19.4921875 L83.7578125,37 L80.9453125,37 L80.9453125,11.640625 L83.40625,11.640625 L83.7578125,15.859375 L83.7578125,16.140625 C84.4921912,14.5781172 85.4765563,13.3593794 86.7109375,12.484375 C87.9453187,11.6093706 89.414054,11.171875 91.1171875,11.171875 C91.4765643,11.171875 91.8242171,11.1992185 92.1601562,11.2539062 C92.4960954,11.308594 92.7734364,11.3671872 92.9921875,11.4296875 L92.6171875,14.0546875 Z M100.421875,37 L97.6328125,37 L97.6328125,11.640625 L100.421875,11.640625 L100.421875,37 Z M100.421875,4.375 L97.6328125,4.375 L97.6328125,0.4375 L100.421875,0.4375 L100.421875,4.375 Z M106.609375,23.9453125 C106.609375,20.2109188 107.632802,17.1484495 109.679687,14.7578125 C111.726573,12.3671755 114.437483,11.171875 117.8125,11.171875 C121.203142,11.171875 123.921865,12.3671755 125.96875,14.7578125 C128.015635,17.1484495 129.039062,20.2109188 129.039062,23.9453125 L129.039062,24.71875 C129.039062,28.4687687 128.019541,31.5351443 125.980469,33.9179688 C123.941396,36.3007932 121.234392,37.4921875 117.859375,37.4921875 C114.453108,37.4921875 111.726573,36.3007932 109.679687,33.9179688 C107.632802,31.5351443 106.609375,28.4687687 106.609375,24.71875 L106.609375,23.9453125 Z M109.421875,24.71875 C109.421875,27.6562647 110.164055,30.12499 111.648438,32.125 C113.13282,34.12501 115.203112,35.125 117.859375,35.125 C120.468763,35.125 122.519524,34.12501 124.011719,32.125 C125.503914,30.12499 126.25,27.6562647 126.25,24.71875 L126.25,23.9453125 C126.25,21.054673 125.500008,18.6015726 124,16.5859375 C122.499992,14.5703024 120.437513,13.5625 117.8125,13.5625 C115.187487,13.5625 113.13282,14.5703024 111.648438,16.5859375 C110.164055,18.6015726 109.421875,21.054673 109.421875,23.9453125 L109.421875,24.71875 Z M150.085938,30.5546875 C150.085938,29.3671816 149.597661,28.3281295 148.621094,27.4375 C147.644526,26.5468705 145.882825,25.8203153 143.335938,25.2578125 C140.304672,24.6015592 138.066413,23.7343804 136.621094,22.65625 C135.175774,21.5781196 134.453125,20.0546973 134.453125,18.0859375 C134.453125,16.1484278 135.269523,14.5117254 136.902344,13.1757812 C138.535164,11.8398371 140.695299,11.171875 143.382812,11.171875 C146.242202,11.171875 148.507804,11.8788992 150.179688,13.2929688 C151.851571,14.7070383 152.648438,16.4765519 152.570312,18.6015625 L152.523438,18.7421875 L149.921875,18.7421875 C149.921875,17.3515555 149.332037,16.1406302 148.152344,15.109375 C146.97265,14.0781198 145.382822,13.5625 143.382812,13.5625 C141.335927,13.5625 139.800786,14.0039018 138.777344,14.8867188 C137.753901,15.7695357 137.242188,16.8046816 137.242188,17.9921875 C137.242188,19.1640684 137.683589,20.1328087 138.566406,20.8984375 C139.449223,21.6640663 141.210924,22.3359346 143.851562,22.9140625 C146.867203,23.5859409 149.124992,24.5039004 150.625,25.6679688 C152.125008,26.8320371 152.875,28.4140525 152.875,30.4140625 C152.875,32.523448 152.01954,34.2304622 150.308594,35.5351562 C148.597648,36.8398503 146.335952,37.4921875 143.523438,37.4921875 C140.445297,37.4921875 138.027353,36.7578198 136.269531,35.2890625 C134.51171,33.8203052 133.679687,32.0703227 133.773438,30.0390625 L133.820312,29.8984375 L136.398438,29.8984375 C136.507813,31.7265716 137.253899,33.0546834 138.636719,33.8828125 C140.019538,34.7109416 141.648428,35.125 143.523438,35.125 C145.554698,35.125 147.156244,34.679692 148.328125,33.7890625 C149.500006,32.898433 150.085938,31.8203188 150.085938,30.5546875 L150.085938,30.5546875 Z" id="andrios" fill="#D4504A" sketch:type="MSShapeGroup"></path>
    </g>
</svg>

<svg width="153" height="38" viewBox="0 0 153 38" xmlns="http://www.w3.org/2000/svg" xmlns:sketch="http://www.bohemiancoding.com/sketch/ns"><path d="M17.758 37c-.188-.859-.32-1.602-.398-2.227-.078-.625-.117-1.258-.117-1.898-.938 1.328-2.187 2.43-3.75 3.305-1.563.875-3.32 1.313-5.273 1.313-2.469 0-4.387-.656-5.754-1.969-1.367-1.313-2.051-3.07-2.051-5.273 0-2.344 1.012-4.219 3.035-5.625 2.023-1.406 4.754-2.109 8.191-2.109h5.602v-3.141c0-1.813-.582-3.234-1.746-4.266-1.164-1.031-2.793-1.547-4.887-1.547-1.953 0-3.574.492-4.863 1.477-1.289.984-1.934 2.187-1.934 3.609l-2.578-.023-.047-.141c-.094-1.891.77-3.582 2.59-5.074 1.82-1.492 4.137-2.238 6.949-2.238 2.797 0 5.047.711 6.75 2.133 1.703 1.422 2.555 3.461 2.555 6.117v12.469c0 .891.051 1.758.152 2.602.102.844.27 1.68.504 2.508h-2.93zm-9.211-1.992c2.016 0 3.797-.473 5.344-1.418 1.547-.945 2.664-2.152 3.352-3.621v-5.297h-5.648c-2.547 0-4.582.543-6.105 1.629-1.523 1.086-2.285 2.434-2.285 4.043 0 1.375.473 2.496 1.418 3.363s2.254 1.301 3.926 1.301zm21.445-23.367l.258 4.43c.813-1.563 1.91-2.77 3.293-3.621 1.383-.852 3.02-1.277 4.91-1.277 2.75 0 4.844.84 6.281 2.52 1.438 1.68 2.156 4.301 2.156 7.863v15.445h-2.813v-15.422c0-2.906-.543-4.961-1.629-6.164-1.086-1.203-2.629-1.805-4.629-1.805-1.969 0-3.574.52-4.816 1.559s-2.137 2.418-2.684 4.137v17.695h-2.813v-25.359h2.484zm23.133 12.891c0-4.047.855-7.285 2.566-9.715 1.711-2.43 4.098-3.645 7.16-3.645 1.766 0 3.297.375 4.594 1.125 1.297.75 2.375 1.812 3.234 3.188v-15.047h2.789v36.563h-2.484l-.234-3.68c-.844 1.344-1.93 2.375-3.258 3.094-1.328.719-2.891 1.078-4.688 1.078-3.031 0-5.402-1.129-7.113-3.387-1.711-2.258-2.566-5.285-2.566-9.082v-.492zm2.813.492c0 3.063.613 5.5 1.84 7.313 1.227 1.813 3.074 2.719 5.543 2.719 1.813 0 3.324-.406 4.535-1.219 1.211-.813 2.152-1.937 2.824-3.375v-11.906c-.641-1.469-1.547-2.66-2.719-3.574-1.172-.914-2.703-1.371-4.594-1.371-2.469 0-4.324 1.012-5.566 3.035s-1.863 4.652-1.863 7.887v.492zm36.68-10.969l-2.086-.141c-1.766 0-3.215.496-4.348 1.488s-1.941 2.355-2.426 4.09v17.508h-2.813v-25.359h2.461l.352 4.219v.281c.734-1.563 1.719-2.781 2.953-3.656 1.234-.875 2.703-1.313 4.406-1.313.359 0 .707.027 1.043.082.336.055.613.113.832.176l-.375 2.625zm7.805 22.945h-2.789v-25.359h2.789v25.359zm0-32.625h-2.789v-3.938h2.789v3.938zm6.188 19.57c0-3.734 1.023-6.797 3.07-9.188 2.047-2.391 4.758-3.586 8.133-3.586 3.391 0 6.109 1.195 8.156 3.586 2.047 2.391 3.07 5.453 3.07 9.188v.773c0 3.75-1.02 6.816-3.059 9.199s-4.746 3.574-8.121 3.574c-3.406 0-6.133-1.191-8.18-3.574-2.047-2.383-3.07-5.449-3.07-9.199v-.773zm2.813.773c0 2.938.742 5.406 2.227 7.406 1.484 2 3.555 3 6.211 3 2.609 0 4.66-1 6.152-3s2.238-4.469 2.238-7.406v-.773c0-2.891-.75-5.344-2.25-7.359-1.5-2.016-3.562-3.023-6.188-3.023-2.625 0-4.68 1.008-6.164 3.023-1.484 2.016-2.227 4.469-2.227 7.359v.773zm40.664 5.836c0-1.188-.488-2.227-1.465-3.117-.977-.891-2.738-1.617-5.285-2.18-3.031-.656-5.27-1.523-6.715-2.602-1.445-1.078-2.168-2.602-2.168-4.57 0-1.938.816-3.574 2.449-4.91 1.633-1.336 3.793-2.004 6.48-2.004 2.859 0 5.125.707 6.797 2.121 1.672 1.414 2.469 3.184 2.391 5.309l-.047.141h-2.602c0-1.391-.59-2.602-1.77-3.633-1.18-1.031-2.77-1.547-4.77-1.547-2.047 0-3.582.441-4.605 1.324-1.023.883-1.535 1.918-1.535 3.105 0 1.172.441 2.141 1.324 2.906.883.766 2.645 1.437 5.285 2.016 3.016.672 5.273 1.59 6.773 2.754s2.25 2.746 2.25 4.746c0 2.109-.855 3.816-2.566 5.121-1.711 1.305-3.973 1.957-6.785 1.957-3.078 0-5.496-.734-7.254-2.203-1.758-1.469-2.59-3.219-2.496-5.25l.047-.141h2.578c.109 1.828.855 3.156 2.238 3.984 1.383.828 3.012 1.242 4.887 1.242 2.031 0 3.633-.445 4.805-1.336 1.172-.891 1.758-1.969 1.758-3.234z" fill="#D4504A"/></svg>
